Phone repair/img/other-problems.svg

<svg width="30" height="30" viewBox="0 0 30 30" fill="none" xmlns="http://www.w3.org/2000/svg">
<path d="M29.3062 18.945L26.1412 16.4625C26.2012 15.9824 26.2462 15.495 26.2462 15C26.2462 14.505 26.2012 14.0175 26.1412 13.5375L29.3137 11.0549C29.5987 10.8299 29.6812 10.4249 29.4937 10.095L26.4937 4.89747C26.3062 4.57495 25.9162 4.43995 25.5787 4.57495L21.8437 6.08245C21.0712 5.48992 20.2237 4.98747 19.3087 4.60497L18.7462 0.629999C18.6787 0.277523 18.3712 0 17.9962 0H11.9962C11.6213 0 11.3137 0.277523 11.2537 0.629999L10.6912 4.60497C9.77627 4.98747 8.92872 5.48247 8.15627 6.08245L4.42127 4.57495C4.08377 4.44747 3.69375 4.57495 3.5063 4.89747L0.506206 10.095C0.318682 10.4175 0.401229 10.8225 0.686206 11.0549L3.85118 13.5375C3.7912 14.0175 3.7462 14.505 3.7462 15C3.7462 15.495 3.7912 15.9824 3.85118 16.4625L0.686206 18.945C0.401229 19.17 0.318682 19.575 0.506206 19.905L3.50623 25.1025C3.69375 25.425 4.0837 25.56 4.4212 25.425L8.1562 23.9175C8.92872 24.51 9.7762 25.0125 10.6912 25.395L11.2537 29.3699C11.3136 29.7224 11.6212 29.9999 11.9962 29.9999H17.9961C18.3711 29.9999 18.6787 29.7224 18.7386 29.3699L19.3011 25.395C20.2161 25.0125 21.0637 24.5175 21.8361 23.9175L25.5711 25.425C25.9086 25.5525 26.2986 25.425 26.4861 25.1025L29.4861 19.905C29.6737 19.5825 29.5912 19.1775 29.3062 18.945ZM14.9962 20.25C12.0937 20.25 9.74617 17.9025 9.74617 15C9.74617 12.0975 12.0937 9.75002 14.9962 9.75002C17.8987 9.75002 20.2462 12.0975 20.2462 15C20.2462 17.9025 17.8987 20.25 14.9962 20.25Z" fill="#FF005C"/>
</svg>

<svg width="30" height="30" fill="none" xmlns="http://www.w3.org/2000/svg"><path d="m29.306 18.945-3.165-2.483c.06-.48.105-.967.105-1.462s-.045-.982-.105-1.463l3.173-2.482a.748.748 0 0 0 .18-.96l-3-5.198a.742.742 0 0 0-.915-.322l-3.735 1.507a11.38 11.38 0 0 0-2.535-1.477L18.746.63a.771.771 0 0 0-.75-.63h-6a.757.757 0 0 0-.742.63l-.563 3.975a11.1 11.1 0 0 0-2.535 1.477L4.421 4.575a.75.75 0 0 0-.915.322l-3 5.198a.751.751 0 0 0 .18.96l3.165 2.482c-.06.48-.105.968-.105 1.463 0 .495.045.982.105 1.462L.686 18.945a.748.748 0 0 0-.18.96l3 5.197c.188.323.578.458.915.323l3.735-1.508c.773.593 1.62 1.095 2.535 1.478l.563 3.975c.06.352.367.63.742.63h6a.757.757 0 0 0 .743-.63l.562-3.975a11.098 11.098 0 0 0 2.535-1.477l3.735 1.507a.75.75 0 0 0 .915-.323l3-5.197a.751.751 0 0 0-.18-.96Zm-14.31 1.305A5.246 5.246 0 0 1 9.746 15a5.246 5.246 0 0 1 5.25-5.25 5.246 5.246 0 0 1 5.25 5.25 5.246 5.246 0 0 1-5.25 5.25Z" fill="#FF005C"/></svg>
